static/img/kroki/9fda57509cc11d2a1c2b9ce73bd5cb68.svg

<?xml version="1.0" encoding="us-ascii" standalone="no"?><svg xmlns="http://www.w3.org/2000/svg" xmlns:xlink="http://www.w3.org/1999/xlink" contentStyleType="text/css" height="152px" preserveAspectRatio="none" style="width:192px;height:152px;" version="1.1" viewBox="0 0 192 152" width="192px" zoomAndPan="magnify"><defs/><g><!--class gcp_address--><g id="elem_gcp_address"><rect codeLine="22" fill="#3D176E" height="39.7891" id="gcp_address" rx="2.5" ry="2.5" style="stroke:#000D19;stroke-width:0.5;" width="142" x="25" y="106.79"/><ellipse cx="40" cy="126.6845" fill="#ADD1B2" rx="11" ry="11" style="stroke:#181818;stroke-width:1.0;"/><path d="M42.9688,132.3252 Q42.3906,132.622 41.75,132.7627 Q41.1094,132.9189 40.4063,132.9189 Q37.9063,132.9189 36.5781,131.2783 Q35.2656,129.622 35.2656,126.497 Q35.2656,123.372 36.5781,121.7158 Q37.9063,120.0595 40.4063,120.0595 Q41.1094,120.0595 41.75,120.2158 Q42.4063,120.372 42.9688,120.6689 L42.9688,123.3877 Q42.3438,122.8095 41.75,122.5439 Q41.1563,122.2627 40.5313,122.2627 Q39.1875,122.2627 38.5,123.3408 Q37.8125,124.4033 37.8125,126.497 Q37.8125,128.5908 38.5,129.6689 Q39.1875,130.7314 40.5313,130.7314 Q41.1563,130.7314 41.75,130.4658 Q42.3438,130.1845 42.9688,129.6064 L42.9688,132.3252 Z " fill="#000000"/><text fill="#D9B8FF" font-family="Helvetica" font-size="17" lengthAdjust="spacing" textLength="100" x="59" y="132.5698">gcp_address</text></g><!--class gcp_subnetwork--><g id="elem_gcp_subnetwork"><rect codeLine="24" fill="#3D176E" height="39.7891" id="gcp_subnetwork" rx="2.5" ry="2.5" style="stroke:#000D19;stroke-width:0.5;" width="178" x="7" y="7"/><ellipse cx="22" cy="26.8945" fill="#ADD1B2" rx="11" ry="11" style="stroke:#181818;stroke-width:1.0;"/><path d="M24.9688,32.5352 Q24.3906,32.832 23.75,32.9727 Q23.1094,33.1289 22.4063,33.1289 Q19.9063,33.1289 18.5781,31.4883 Q17.2656,29.832 17.2656,26.707 Q17.2656,23.582 18.5781,21.9258 Q19.9063,20.2695 22.4063,20.2695 Q23.1094,20.2695 23.75,20.4258 Q24.4063,20.582 24.9688,20.8789 L24.9688,23.5977 Q24.3438,23.0195 23.75,22.7539 Q23.1563,22.4727 22.5313,22.4727 Q21.1875,22.4727 20.5,23.5508 Q19.8125,24.6133 19.8125,26.707 Q19.8125,28.8008 20.5,29.8789 Q21.1875,30.9414 22.5313,30.9414 Q23.1563,30.9414 23.75,30.6758 Q24.3438,30.3945 24.9688,29.8164 L24.9688,32.5352 Z " fill="#000000"/><text fill="#D9B8FF" font-family="Helvetica" font-size="17" lengthAdjust="spacing" textLength="136" x="41" y="32.7798">gcp_subnetwork</text></g><!--link gcp_subnetwork to gcp_address--><g id="link_gcp_subnetwork_gcp_address"><path codeLine="26" d="M96,47.22 C96,62.49 96,83.92 96,100.53 " fill="none" id="gcp_subnetwork-to-gcp_address" style="stroke:#1A83AF;stroke-width:2.0;"/><polygon fill="#1A83AF" points="96,105.41,100,96.41,96,100.41,92,96.41,96,105.41" style="stroke:#1A83AF;stroke-width:2.0;"/></g><!--SRC=[XP9DJuGm48Rl-okQSDu490fSJ91aevUDSRqPOmgTGWEqP3f8LkD_TzbLKs4_hk_xPEQPffKImA3jQCjQQ7D0kx2rqXr7th8KqGoPQGmoJqekmsXQheocYy2Qjy3keNa7KWMV4i-LAceDrh8hfxhZHLsYwRKuZ2VaskugqEHGMSEjJObGvJs18oEIF9PoIaw7Ug48eXkOOGO5u0_Y-xu8aYboSTNPk_-8ZVe05hYFjZO4CytPYZrrrd8a7CdPeR_zIST7BeJI9RjsigU34sh0V_ccui8C8orvOzqrbW31qBQ3R7OL9B6GqL7uuHHSZ2_7og9xs-dX-6a-5rzEQljS0mq6wtqnYPOlNf36ORfwNTwwGxu1]--></g></svg>

<svg xmlns="http://www.w3.org/2000/svg" width="192" height="152" preserveAspectRatio="none" style="width:192px;height:152px"><rect width="142" height="39.789" x="25" y="106.79" fill="#3D176E" rx="2.5" ry="2.5" style="stroke:#000d19;stroke-width:.5"/><circle cx="40" cy="126.684" r="11" fill="#ADD1B2" style="stroke:#181818;stroke-width:1"/><path d="M42.969 132.325q-.578.297-1.219.438-.64.156-1.344.156-2.5 0-3.828-1.64-1.312-1.657-1.312-4.782t1.312-4.781q1.328-1.656 3.828-1.656.703 0 1.344.156.656.156 1.219.453v2.719q-.625-.579-1.219-.844-.594-.281-1.219-.281-1.343 0-2.031 1.078-.688 1.062-.688 3.156 0 2.094.688 3.172.688 1.062 2.031 1.062.625 0 1.219-.265.594-.281 1.219-.86v2.72Z"/><text x="59" y="132.57" fill="#D9B8FF" font-family="Helvetica" font-size="17" textLength="100">gcp_address</text><rect width="178" height="39.789" x="7" y="7" fill="#3D176E" rx="2.5" ry="2.5" style="stroke:#000d19;stroke-width:.5"/><circle cx="22" cy="26.895" r="11" fill="#ADD1B2" style="stroke:#181818;stroke-width:1"/><path d="M24.969 32.535q-.578.297-1.219.438-.64.156-1.344.156-2.5 0-3.828-1.64-1.312-1.657-1.312-4.782t1.312-4.781q1.328-1.656 3.828-1.656.703 0 1.344.156.656.156 1.219.453v2.719q-.625-.578-1.219-.844-.594-.281-1.219-.281-1.343 0-2.031 1.078-.688 1.062-.688 3.156 0 2.094.688 3.172.688 1.062 2.031 1.062.625 0 1.219-.265.594-.281 1.219-.86v2.72Z"/><text x="41" y="32.78" fill="#D9B8FF" font-family="Helvetica" font-size="17" textLength="136">gcp_subnetwork</text><path fill="none" d="M96 47.22v53.31" style="stroke:#1a83af;stroke-width:2"/><path fill="#1A83AF" d="m96 105.41 4-9-4 4-4-4 4 9z" style="stroke:#1a83af;stroke-width:2"/></svg>
